!!!!SEGMENT: d-b--slg-bohn-ms-mus-111--002_jarzebski-adam--canzoni-e-concerti-2-concerto-secundo.krn
!!!cenid: 16xx:1775
!!!COM: Jarzębski, Adam
!!!COM-rismID: pe30017782
!!!CDT:
!!!CNT:
!!!GTL: Canzoni e Concerti
!!!OTL: 2. Concerto Secundo
!!!PDT: 1627
!!!AGN:
!!!SMS-siglum: D-B
!!!SMS-shelfmark: Slg Bohn Ms.mus. 111
!!!SMS-shelfwork: 002 G
!!!SMS-variant:
!!!SMS-altvar:
!!!NIFC-rismSourceID: 1001062014
!!!NIFC-rismChildID: 1001062014
!!!NIFC-islandoraID: none
!!!URL-pdf-islandora:
!!!URL-scan: https://digital.staatsbibliothek-berlin.de/werkansicht/?PPN=PPN1049147219 @EN{Scan on Staatsbibliothek zu Berlin Website} @PL{Skany w portalu Staatsbibliothek zu Berlin}
!!!ONB-nifc: UWAGA: Prima vox: s. 5, Seconda vox: s. 65, Basso continuo: s. 165. Uwaga: proszę wpisywać partie tylko występujące w danym koncercie i nazywać partie wg określeń podawanych przy danym utworze. Kody instr. dla humdrumowców podane zostaną na forum.
!!!AIN: 1 soprn 1 tenor
!!!key: a
!!!filter-modern: sic -sq | shed -e "s/TX(.*):t=P:/tx$1:t=P:/LG" | shed -e "s/^(\d+[\/\\]right)/$1yy/I;s/^(\d+[\/\\]left)/$1yy/I" | shed -e "s/i//" | shed -e "s/^custos:/Xcustos:/I" | shed -k -e "s/LO:N:vis/LO:n:vis:/L" | shed -e "s/:rj/:RJ/L" | shed -e "s/LO:DY:(a|b|rj)/LO:dy:$1/L" | shed -e "s/-//B" | modori -m | tie -s | autostem -r
**kern	**kern	**kern
*	*group1	*group1
*part3	*part2	*part1
*staff3	*staff2	*staff1
*I"Baſso Continuo	*I"Tenor.	*I"Sopr:
*mI"Basso continuo	*mI"Tenore	*mI"Soprano
*I'bc	*I'T	*I'S
*	*ICvox	*ICvox
*	*Itenor	*Isoprn
*IGcont	*	*
*clefF4	*clefC4	*clefG2
*	*mclefGv2	*
*k[]	*k[]	*k[]
*a:	*a:	*a:
*M2/2	*M2/2	*M2/2
*met(C|)	*met(C|)	*met(C|)
*mmet(c|)	*mmet(c|)	*mmet(c|)
=1-	=1-	=1-
!!LO:TX:t=P:problem:all\right or left	!LO:TX:t=P:problem:all\right or middle	!!LO:TX:t=P:problem:all\right or middle
!	!	!LO:TX:b:i:t=8:mod=
2D/	2D/	00r
4D/	4D/	.
4D/	4D/	.
=2-	=2-	=2-
4A\	4A/	.
4G\	4G/	.
4A\	4A/	.
!LO:TX:t=P:problem:kreska pseudotaktowa	!	!
4B\	4B\	.
=3-	=3-	=3-
*	*2\right	*
4c\	2c\	.
4AA/	.	.
4AA/	2c\	.
4AA/	.	.
=4-	=4-	=4-
4E\	2B\	.
4D/	.	.
4E\	4G/	.
!LO:TX:t=P:problem:kreska pseudotaktowa	!	!
4F\	4A/	.
=5-	=5-	=5-
*2\right	*	*
2G\	8B\L	00r
.	8A\	.
.	8B\	.
.	8c\J	.
2G\	8d\L	.
.	8c\	.
.	8d\	.
!	!LO:TX:t=P:problem:kreska pseudotaktowa	!
.	8e\J	.
=6-	=6-	=6-
!LO:TX:t=P:problem:kreska pseudotaktowa	!	!
1D	2.f\	.
.	8e\L	.
.	8d\J	.
=7-	=7-	=7-
2A\	2c#X\	.
2D/	2d\	.
=8-	=8-	=8-
!LO:TX:t=P:problem:kreska pseudotaktowa	!	!
1A	4e\	.
.	8A\L	.
.	8B\	.
.	8c#Xi\	.
.	8d\	.
.	8e\	.
.	8c#Xi\J	.
=9-	=9-	=9-
!	!	!LO:TX:t=P:problem:4/right:global
0D	1d	4.aa\
.	.	8ff#X\
.	.	4.dd\
!	!	!LO:TX:t=P:problem:8/right:global
!	!	!LO:TX:t=P:problem:kreska pseudotaktowa
.	.	8ff#X\
=10-	=10-	=10-
.	2r	4.aa\
.	.	8bb\
.	4.A/	2aa\
.	8F#X/	.
=11-	=11-	=11-
1D	4.D/	1r
!	!LO:TX:t=P:problem:# below	!
.	8F#X/	.
.	4.A/	.
!	!LO:TX:t=P:problem:kreska pseudotaktowa	!
.	8B\	.
*custos:A	*custos:A	*
!LO:LB:g=original	!LO:LB:g=original	!
=12-	=12-	=12-
2A\	2A/	4.aa\
.	.	8gg\
!LO:TX:t=P:problem:kreska pseudotaktowa	!	!
2D/	2D/	4ff#X\
!	!	!LO:TX:t=P:problem:kreska pseudotaktowa
.	.	4aa\
=13-	=13-	=13-
2G\	4r	4.gg\
.	4G/	.
.	.	8ff#Xi\
!	!LO:TX:t=P:problem:kreska pseudotaktowa	!
2A\	2A/	2ee\
=14-	=14-	=14-
2D/	2D/	4r
.	.	4ff#Xi\
*	*	*2\right
!LO:TX:t=P:problem:kreska pseudotaktowa	!	!LO:TX:t=P:problem:kreska pseudotaktowa
2D/	4r	2aa\
.	4d\	.
=15-	=15-	=15-
2G\	4e\	4gg\
!	!	!LO:TX:t=P:problem:16/right:global
.	16f\LL	16aa\LL
.	16e\	16gg\
.	16f\	16aa\
.	16e\JJ	16gg\JJ
2D/	4d\	4ffny\
.	16e\LL	16gg\LL
.	16d\	16ff\
.	16e\	16gg\
!	!	!LO:TX:t=P:problem:kreska pseudotaktowa
.	16d\JJ	16ff\JJ
=16-	=16-	=16-
!	!LO:TX:t=P:problem:kreska pseudotaktowa	!
1A	4c#X\	4ee\
.	8A\L	8cc#Xi\L
.	8B\	8dd\
.	8c#Xi\	8ee\
.	8d\	8ff\
.	8e\	8gg\
.	8c#Xi\J	8ee\J
=17-	=17-	=17-
1D	1d	1dd
*	*	*custos:dd
!	!	!LO:LB:g=original
=18-	=18-	=18-
*M3/2	*M3/2	*M3/2
0D	1D	0dd
.	1d\	.
=19-	=19-	=19-
.	.	.
1C#X	1c#Xi	1ee
=20-	=20-	=20-
0D	1.d	0ff#
=21-	=21-	=21-
.	2cny\	.
!LO:TX:t=P:problem:kreska pseudotaktowa	!	!LO:TX:t=P:problem:kreska pseudotaktowa
1BB	1B	1gg#X
=22-	=22-	=22-
0AA	2A/	0aa
.	2B\	.
.	2c\	.
=23-	=23-	=23-
.	2d\	.
1E	1e	1gg#X
=24-	=24-	=24-
!LO:TX:t=P:problem:kreska pseudotaktowa	!	!LO:TX:t=P:problem:kreska pseudotaktowa
0.AA	0A	0.aa
.	.	.
.	.	.
=25-	=25-	=25-
.	.	.
.	1r	.
*	*custos:D	*
!	!LO:LB:g=original	!
=26-	=26-	=26-
0D	1D	0dd
.	1d\	.
=27-	=27-	=27-
.	.	.
1C#X	1c#X	1ee
*custos:D	*	*
!LO:LB:g=original	!	!
=28-	=28-	=28-
0D	1.d	0ff#
=29-	=29-	=29-
.	2cny\	.
!LO:TX:t=P:problem:kreska pseudotaktowa	!LO:TX:t=P:problem:kreska pseudotaktowa	!LO:TX:t=P:problem:kreska pseudotaktowa
1BB	1B	1gg#X
=30-	=30-	=30-
0AA	2A/	0aa
.	2B\	.
.	2c\	.
=31-	=31-	=31-
.	2d\	.
1E	1e	1gg#X
=32-	=32-	=32-
*M2/2	*M2/2	*M2/2
*met(C|)	*met(C|)	*met(C|)
*mmet(c|)	*mmet(c|)	*mmet(c|)
2AA/	2A/	8aa\L
.	.	8bb\J
.	.	8ggny\L
.	.	8aa\J
4D/	8d\L	8ffny\L
.	8e\J	8gg\J
!LO:TX:t=P:problem:kreska pseudotaktowa	!	!
4Cny/	8c\L	8ee\L
!	!	!LO:TX:t=P:problem:kreska pseudotaktowa
.	8d\J	8ff\J
=33-	=33-	=33-
4BB-X/	2B-X\	4dd\
2GG/	.	4.gg\
.	2G/	.
.	.	8ff\L
4GG/	.	8ee\
.	.	8dd\J
*	*clefF4	*
=34-	=34-	=34-
2AA/	8A\L	2cc#X\
.	8G\	.
.	8Fny\	.
.	8E\J	.
!LO:TX:t=P:problem:kreska pseudotaktowa	!	!
2DD/	4D/	1dd\
.	8C/L	.
.	8BB/J	.
=35-	=35-	=35-
1AA	4AA/	.
.	4GG/	.
.	2AA/	2cc#X\
=36-	=36-	=36-
2D/	4D/	1dd
*	*clefC4	*
*	*mclefGv2	*
.	4d\	.
!LO:TX:t=P:problem:kreska pseudotaktowa	!	!
2D/	4d\	.
!	!LO:TX:t=P:problem:kreska pseudotaktowa	!
.	4d\	.
*	*	*custos:dd
!	!	!LO:LB:g=original
=37-	=37-	=37-
!	!	!LO:TX:b:i:t=2.:mod=
2.F\	4A/	0r
.	4.c\	.
.	8d\L	.
4C/	8e\	.
.	8f\J	.
*	*custos:g	*
!	!LO:LB:g=original	!
=38-	=38-	=38-
4C/	4g\	.
4D/	4f\	.
!LO:TX:t=P:problem:kreska pseudotaktowa	!	!
2A\	2e\	.
*custos:D	*	*
!LO:LB:g=original	!	!
=39-	=39-	=39-
!	!LO:TX:t=P:problem:kreska pseudotaktowa	!
1D	1d	2dd\
.	.	2ff#X\
=40-	=40-	=40-
2D/	4r	2dd\
.	4d\	.
4D/	4d\	2ff#X\
!LO:TX:t=P:problem:kreska pseudotaktowa	!	!
4D/	4d\	.
=41-	=41-	=41-
4A\	4c#X\	2aa\
4D/	4d\	.
2A\	2A/	2aa\
=42-	=42-	=42-
2D/	4D/	2ff#X\
.	4d\	.
4A\	4c#X\	2aa\
!LO:TX:t=P:problem:kreska pseudotaktowa	!	!
4D/	4d\	.
=43-	=43-	=43-
2G\	8G/L	2gg\
.	8A/	.
.	8Bny/	.
.	8G/J	.
!	!LO:TX:t=P:problem:kreska pseudotaktowa	!
2A\	2A/	2ee\
=44-	=44-	=44-
!LO:TX:t=P:problem:kreska pseudotaktowa	!	!
1D	4D/	1ff#X
.	4d\	.
.	4d\	.
.	4d\	.
=45-	=45-	=45-
2G\	8G/L	1r
.	8A/	.
.	8B/	.
.	8cny/J	.
2D/	4d\	.
!	!LO:TX:t=P:problem:kreska pseudotaktowa	!
.	4D/	.
=46-	=46-	=46-
2A\	2A/	2aa\
!LO:TX:t=P:problem:kreska pseudotaktowa	!	!
2D/	4r	2ff#X\
.	4D/	.
=47-	=47-	=47-
2G\	4G/	2dd\
.	4G/	.
2C/	8C/L	2ee\
.	8D/	.
.	8E/	.
.	8C/J	.
=48-	=48-	=48-
4D/	4D/	2ff#X\
4.D/	4.D/	.
.	.	2aa\
8E\L	8E/L	.
8F\	8F/	.
!LO:TX:t=P:problem:kreska pseudotaktowa	!	!
8G\J	8G/J	.
*	*custos:A	*
!	!LO:LB:g=original	!
=49-	=49-	=49-
4A\	4A/	2ee\
2E\	4.E/	.
.	.	2gg\
.	8F/L	.
4E\	8G/	.
!	!LO:TX:t=P:problem:kreska pseudotaktowa	!
.	8E/J	.
*custos:D	*	*
!LO:LB:g=original	!	!
=50-	=50-	=50-
2D/	8D/L	2ff#Xi\
.	8E/	.
.	8F/	.
.	8G/J	.
!LO:TX:t=P:problem:kreska pseudotaktowa	!	!
2A\	2A/	2ee\
=51-	=51-	=51-
0D	4D/	1dd
.	4d\	.
.	4d\	.
.	4d\	.
=52-	=52-	=52-
.	2d\	4r
.	.	4aa\
.	4r	4aa\
!	!	!LO:TX:t=P:problem:kreska pseudotaktowa
.	4d\	4aa\
=53-	=53-	=53-
2.D/	4d\	4ffny\
.	4.d\	8aa\L
.	.	8gg\
.	.	8ff\
.	8c\L	8ee\
4G\	8B\	8dd\
.	8A\J	8ccny\J
=54-	=54-	=54-
4G\	8G/L	8b/L
.	8F/	8a/
2C/	8E/	8g/
.	8D/J	8f/J
*	*	*custos:g
!	!	!LO:LB:g=original
.	4C/	4g/
!LO:TX:t=P:problem:kreska pseudotaktowa	!LO:MO:mod=[4c	!
4C/	4.c\	8cc\L
!	!	!LO:TX:t=P:problem:kreska pseudotaktowa
.	.	8dd\J
=55-	=55-	=55-
!	!LO:MO:null:mod=8c]L	!
4.C/	.	8ee\L
!	!LO:SIC:s=8d	!
.	8d\L	8ff\J
.	8e\	4gg\
8D/L	8f\J	.
8E/	4g\	4.g/
8F/J	.	.
!	!LO:MO:mod=[4G	!
4G\	4.G/	.
!	!	!LO:TX:t=P:problem:kreska pseudotaktowa
.	.	8a/
=56-	=56-	=56-
!	!LO:MO:null:mod=8G]L	!
4.GG/	.	8b/L
!	!LO:MO:mod=8A	!
.	8A/L	8cc/J
.	8B/	4dd\
8AA/L	8c/J	.
8BBny/	4d\	4.d/
8C/J	.	.
!	!LO:MO:mod=[4D	!
2D/	4.D/	.
!	!	!LO:TX:t=P:problem:kreska pseudotaktowa
.	.	8e/
=57-	=57-	=57-
!	!LO:MO:null:mod=8D]L	!
.	.	8f/L
!	!LO:MO:mod=8E	!
.	8E/L	8g/
4D/	8F/	8a/
.	8G/J	8b/J
!	!LO:TX:t=P:problem:kreska pseudotaktowa	!
2A\	2A/	8cc#X\L
.	.	8dd\
.	.	8ee\
!	!	!LO:SIC:s=8cc#J
.	.	8cc#Xi\J
=58-	=58-	=58-
2D/	4D/	1dd
.	4d\	.
*	*custos:d	*
!	!LO:LB:g=original	!
4D/	4d\	.
!LO:TX:t=P:problem:kreska pseudotaktowa	!	!
4D/	4d\	.
=59-	=59-	=59-
4AA/	4c\	4r
4.FF/	4.A/	4aa\
.	.	4.aa\
8GG/L	8B\L	.
8AA/	8c\	.
!	!LO:TX:t=P:problem:kreska pseudotaktowa	!LO:TX:t=P:problem:kreska pseudotaktowa
8BB/J	8d\J	8aa\
=60-	=60-	=60-
2C/	4e\	4gg\
.	8E/L	8g/L
.	8F/J	8a/J
!LO:TX:t=P:problem:kreska pseudotaktowa	!	!
2GG/	8G\L	8b/L
.	8A\	8ccny/
.	8B\	8dd/
!	!LO:TX:t=P:problem:kreska pseudotaktowa	!LO:TX:t=P:problem:kreska pseudotaktowa
.	8c\J	8ee/J
=61-	=61-	=61-
2.D/	4d\	4ff\
.	8D/L	8f/L
.	8E/	8g/
.	8F/	8a/
.	8G/	8b/
!LO:TX:t=P:problem:kreska pseudotaktowa	!	!
4AA/	8A/	8cc/
!	!LO:TX:t=P:problem:kreska pseudotaktowa	!LO:TX:t=P:problem:kreska pseudotaktowa
.	8B-X/J	8dd/J
*custos:AA	*clefF4	*
!LO:LB:g=original	!	!
=62-	=62-	=62-
2AA/	8A\L	2ee\
.	8G\	.
.	8F\	.
.	8E\J	.
!LO:TX:t=P:problem:kreska pseudotaktowa	!	!
2DD/	4D/	4ff\
.	8C/L	4gg\
.	8BB/J	.
=63-	=63-	=63-
1AA	4AA/	2.aa\
.	4GG/	.
.	2AA/	.
.	.	4gg\
=64-	=64-	=64-
!LO:SIC:s=0Dl;	!LO:SIC:s=0Dl;	!LO:SIC:s=0ff#l;
0Dl;;	0Dl;;	0ff#Xl;;
==	==	==
*-	*-	*-
!!!system-decoration: [(g1)]s3
!!!system-decoration: s1,s2,s3
!!!RDF**kern: i = editorial accidental
!!!RDF**kern: l = terminal long
!!!ENC: Anastazja Marusiak
!!!END: 2022-10-29
!!!ENC: Natalia Wrzos
!!!END: 2022-11-09
!!!YEC: Copyright 2022 Narodowy Instytut Fryderyka Chopina (https://polishscores.org)
!!!YEM: License CC-BY-4.0 (https://creativecommons.org/licenses/by/4.0)
!!!ENC-modern: Andrzej Borzym
!!!END-modern: 2022-11-28
